app/dist/images/icons/blog-eye.svg

<svg width="22" height="13" viewBox="0 0 22 13" fill="none" xmlns="http://www.w3.org/2000/svg">
<path d="M21.1872 5.08955C19.9785 3.53982 18.4128 2.25795 16.6596 1.38261C14.8699 0.489067 12.9446 0.0254482 10.9347 0.0011357C10.8793 -0.000378568 10.657 -0.000378568 10.6017 0.0011357C8.59183 0.0254902 6.66643 0.489067 4.87673 1.38261C3.1235 2.25795 1.55795 3.53978 0.349229 5.08955C-0.11641 5.68655 -0.11641 6.52045 0.349229 7.11745C1.55791 8.66718 3.1235 9.94905 4.87673 10.8244C6.66643 11.7179 8.59178 12.1816 10.6017 12.2059C10.657 12.2074 10.8793 12.2074 10.9347 12.2059C12.9445 12.1815 14.8699 11.7179 16.6596 10.8244C18.4128 9.94905 19.9784 8.66722 21.1872 7.11745C21.6528 6.52037 21.6528 5.68655 21.1872 5.08955ZM5.26813 10.0405C3.63103 9.22317 2.169 8.02606 1.04007 6.57862C0.821892 6.29886 0.821892 5.90814 1.04007 5.62838C2.16896 4.18094 3.63099 2.98383 5.26813 2.16646C5.73309 1.93435 6.2079 1.73363 6.6915 1.5637C5.44736 2.68207 4.66351 4.30284 4.66351 6.10348C4.66351 7.9042 5.4474 9.5251 6.69167 10.6434C6.20807 10.4735 5.73314 10.2727 5.26813 10.0405ZM10.7682 11.332C7.88512 11.332 5.5396 8.98652 5.5396 6.10344C5.5396 3.22035 7.88512 0.87487 10.7682 0.87487C13.6513 0.87487 15.9968 3.22039 15.9968 6.10348C15.9968 8.98657 13.6513 11.332 10.7682 11.332ZM20.4964 6.57858C19.3675 8.02601 17.9054 9.22313 16.2683 10.0405C15.8039 10.2724 15.3294 10.4722 14.8464 10.642C16.0897 9.52363 16.8729 7.90336 16.8729 6.10344C16.8729 4.30255 16.0889 2.68156 14.8445 1.56319C15.3282 1.73317 15.8032 1.93414 16.2683 2.16637C17.9054 2.98374 19.3675 4.18086 20.4964 5.62829C20.7145 5.9081 20.7145 6.29882 20.4964 6.57858Z" fill="#828282"/>
<path d="M10.7682 3.86621C9.53439 3.86621 8.53064 4.86996 8.53064 6.10376C8.53064 7.33755 9.53439 8.3413 10.7682 8.3413C12.002 8.3413 13.0057 7.33755 13.0057 6.10376C13.0058 4.86996 12.002 3.86621 10.7682 3.86621ZM10.7682 7.46525C10.0175 7.46525 9.40669 6.85454 9.40669 6.10376C9.40669 5.35301 10.0174 4.7423 10.7682 4.7423C11.5189 4.7423 12.1296 5.35301 12.1296 6.10376C12.1297 6.85454 11.5189 7.46525 10.7682 7.46525Z" fill="#828282"/>
</svg>

<svg width="22" height="13" fill="none" xmlns="http://www.w3.org/2000/svg"><path d="M21.187 5.09a13.33 13.33 0 00-4.527-3.707A13.062 13.062 0 0010.602 0c-2.01.025-3.936.49-5.725 1.383A13.33 13.33 0 00.349 5.09a1.647 1.647 0 000 2.027 13.33 13.33 0 004.528 3.707 13.063 13.063 0 006.058 1.382 13.064 13.064 0 005.725-1.382 13.331 13.331 0 004.527-3.707 1.647 1.647 0 000-2.027zM5.268 10.04A12.448 12.448 0 011.04 6.58a.772.772 0 010-.95 12.355 12.355 0 015.651-4.065 6.09 6.09 0 00-2.027 4.54c0 1.8.783 3.421 2.028 4.54a12.34 12.34 0 01-1.424-.604zm5.5 1.292A5.234 5.234 0 015.54 6.103 5.234 5.234 0 0110.768.875a5.234 5.234 0 015.229 5.228 5.234 5.234 0 01-5.229 5.229zm9.728-4.753a12.449 12.449 0 01-4.228 3.462c-.464.231-.939.431-1.422.601a6.09 6.09 0 002.027-4.539 6.09 6.09 0 00-2.029-4.54 12.355 12.355 0 015.652 4.065c.219.28.219.67 0 .95z" fill="#828282"/><path d="M10.768 3.866a2.24 2.24 0 00-2.237 2.238 2.24 2.24 0 002.237 2.237 2.24 2.24 0 002.238-2.237 2.24 2.24 0 00-2.238-2.238zm0 3.6a1.363 1.363 0 010-2.723c.75 0 1.362.61 1.362 1.36 0 .752-.611 1.362-1.362 1.362z" fill="#828282"/></svg>
